pieces/cburnett_purple/nb.svg

<svg width="45" height="45" viewBox="0 0 45 45" fill="none" xmlns="http://www.w3.org/2000/svg">
<path fill-rule="evenodd" clip-rule="evenodd" d="M22 10C32.5 11 38.5 18 38 39H15C15 30 25 32.5 23 18" fill="#29113C"/>
<path d="M22 10C32.5 11 38.5 18 38 39H15C15 30 25 32.5 23 18" stroke="#29113C" stroke-width="1.5" stroke-linecap="round" stroke-linejoin="round"/>
<path fill-rule="evenodd" clip-rule="evenodd" d="M24 18C24.38 20.91 18.45 25.37 16 27C13 29 13.18 31.34 11 31C9.958 30.06 12.41 27.96 11 28C10 28 11.19 29.23 10 30C9 30 5.997 31 6 26C6 24 12 14 12 14C12 14 13.89 12.1 14 10.5C13.27 9.506 13.5 8.5 13.5 7.5C14.5 6.5 16.5 10 16.5 10H18.5C18.5 10 19.28 8.008 21 7C22 7 22 10 22 10" fill="#29113C"/>
<path d="M24 18C24.38 20.91 18.45 25.37 16 27C13 29 13.18 31.34 11 31C9.958 30.06 12.41 27.96 11 28C10 28 11.19 29.23 10 30C9 30 5.997 31 6 26C6 24 12 14 12 14C12 14 13.89 12.1 14 10.5C13.27 9.506 13.5 8.5 13.5 7.5C14.5 6.5 16.5 10 16.5 10H18.5C18.5 10 19.28 8.008 21 7C22 7 22 10 22 10" stroke="#29113C" stroke-width="1.5" stroke-linecap="round" stroke-linejoin="round"/>
<path fill-rule="evenodd" clip-rule="evenodd" d="M9.5 25.5C9.5 25.6326 9.44732 25.7598 9.35355 25.8535C9.25979 25.9473 9.13261 26 9 26C8.86739 26 8.74021 25.9473 8.64645 25.8535C8.55268 25.7598 8.5 25.6326 8.5 25.5C8.5 25.3674 8.55268 25.2402 8.64645 25.1464C8.74021 25.0527 8.86739 25 9 25C9.13261 25 9.25979 25.0527 9.35355 25.1464C9.44732 25.2402 9.5 25.3674 9.5 25.5ZM14.933 15.75C14.8345 15.9215 14.7255 16.0851 14.6123 16.2312C14.4992 16.3773 14.3841 16.5032 14.2737 16.6015C14.1632 16.6998 14.0597 16.7686 13.969 16.804C13.8782 16.8394 13.8021 16.8406 13.745 16.8076C13.6879 16.7747 13.6509 16.7081 13.6362 16.6119C13.6215 16.5156 13.6293 16.3915 13.6593 16.2468C13.6892 16.102 13.7406 15.9394 13.8106 15.7683C13.8806 15.5972 13.9677 15.4211 14.067 15.25C14.1655 15.0785 14.2745 14.9149 14.3877 14.7688C14.5008 14.6227 14.6159 14.4968 14.7263 14.3985C14.8368 14.3002 14.9403 14.2314 15.031 14.196C15.1218 14.1606 15.1979 14.1594 15.255 14.1923C15.3121 14.2253 15.3491 14.2918 15.3638 14.3881C15.3785 14.4844 15.3707 14.6085 15.3407 14.7532C15.3108 14.898 15.2594 15.0606 15.1894 15.2317C15.1194 15.4027 15.0323 15.5789 14.933 15.75V15.75Z" fill="#F0E9E9" stroke="#F0E9E9" stroke-width="1.5" stroke-linecap="round" stroke-linejoin="round"/>
<path fill-rule="evenodd" clip-rule="evenodd" d="M24.55 10.4L24.1 11.85L24.6 12C27.75 13 30.25 14.49 32.5 18.75C34.75 23.01 35.75 29.06 35.25 39L35.2 39.5H37.45L37.5 39C38 28.94 36.62 22.15 34.25 17.66C31.88 13.17 28.46 11.02 25.06 10.5L24.55 10.4Z" fill="#F0E9E9"/>
</svg>

<svg xmlns="http://www.w3.org/2000/svg" width="45" height="45"><g fill="none" fill-rule="evenodd" stroke="#29113C" stroke-width="1.5" stroke-linecap="round" stroke-linejoin="round"><path d="M22 10c10.5 1 16.5 8 16 29H15c0-9 10-6.5 8-21" fill="#29113C"/><path d="M24 18c.38 2.91-5.55 7.37-8 9-3 2-2.82 4.34-5 4-1.042-.94 1.41-3.04 0-3-1 0 .19 1.23-1 2-1 0-4.003 1-4-4 0-2 6-12 6-12s1.89-1.9 2-3.5c-.73-.994-.5-2-.5-3 1-1 3 2.5 3 2.5h2s.78-1.992 2.5-3c1 0 1 3 1 3" fill="#29113C"/><path d="M9.5 25.5a.5.5 0 1 1-1 0 .5.5 0 1 1 1 0zm5.433-9.75a.5 1.5 30 1 1-.866-.5.5 1.5 30 1 1 .866.5z" fill="#A76390" stroke="#A76390"/><path d="M24.55 10.4l-.45 1.45.5.15c3.15 1 5.65 2.49 7.9 6.75S35.75 29.06 35.25 39l-.05.5h2.25l.05-.5c.5-10.06-.88-16.85-3.25-21.34-2.37-4.49-5.79-6.64-9.19-7.16l-.51-.1z" fill="#A76390" stroke="none"/></g></svg>
